X:1
T: Stack of Cards
C:Muriel A Johnstone
R:Reel
%Q: 232
K:D
M:4/4
L:1/8
A2|:d2 dA d2 dB|d2 dB A2 Bc|d2 d2 fe de|f2 e2 eg fe|
d2 dA d2 dB|d2 dB A2 Bc|d2 f2 ef ga|1f2 d2 d2 A2:|2f2 d2 d2 fg|
a3a f2 a2|gf ed f2 ef|d2 dB AB de|f2 e2 e2 fg|
a3a f2 a2|gf ed f2 ef|d2 dB AB de|f2 d2 d2 fg|
a3a f2 a2|gf ed f2 ef|d2 dB AB de|f2 e2 ef ed|
d2 dA d2 dB|d2 dB A2 Bc|d2 f2 ef ga|f2 d2 d2||
